X: 14088
T: SHUMACHER'S HORNPIPE
C: Bob McQuillen Feb'09
B: Bob's Note Book 14 #88
%R: hornpipe, reel
%D:2009
Z: 2020 John Chambers <jc:trillian.mit.edu>
M: C
L: 1/8
K: G	% and D
Bc \
| d2dc BGBd | cBAG E2AB | cBAG FDBA | GBde d2Bc |
| dBed BGBd | eceg agfe | edBd cAFG | A2G2 G2  :| [K:D]
|: FG \
| A2de fafd | efed B2ed | c2cB ABce | dfdB AGFG |
| AFAd f2df | gfed B2AG | FAdB cAce | d2f2 d2  :|
%%begintext align
%% John S. is
%% another one of the wonderful dance fans
%% who is always a fixture at the Monday
%% Night Dance in Nelson. It sure wouldn't
%% be the same without you, John. Thanks
%% for coming!
%%endtext

%%sep 1 1 500

%%sep 1 1 500

